X: 6110
T: Captain Coull's Parrot
R: hornpipe
M: 4/4
K: Aminor
D2|:EA AG AB cA|EG GA GF ED|E2 AG AB cd|eA cd ea ga|
e2 AG AB cA|B2 E^F GA BG|E2 AG AB cd|1 (3cBA BG AB AG:|2 (3cBA BG A2A2 ]|
|:eA cd eA cd|eA cd BA GF|E2 AG AB cd|
[1 eA cd ea ga|eA cd eA cd|eA cd BA GF|E2 AG AB cd|(3cBA BG A2A2:|
[2 (3edc dc ea ga|e2 AG AB cA|B2 E^F GA BG|E2 AG AB cd|(3cBA BG A4||

